!!!!SEGMENT:Harukoma.krn
!!!OTL:春駒
!!!OPR:Eiga Banso Kyokusyu,jidai-geki,kouhen
!!!YOY:1928
!!!ONB:Odori
**kern
*clefG2
*k[]
*C:
*M2/4
=1
4ee
8ff#XL
8eeJ
=2
8ff#XL
16ggL
16ggJJ
8ff#L
8ggJ
=3
8ff#XL
8eeJ
8ccL
8bJ
=4
16bLL
16cc
16cc
16ccJJ
4b
=5
4aa
4bb
=6
8cccL
8bbJ
8aaL
8ffJ
=7
8aaL
8bbJ
16eeLL
16ccc
16ccc
16bbJJ
=8
8aaL
8bbJ
4r
=9
8aaL
8bbJ
16eeLL
16ccc
16ccc
16bbJJ
=10
8aaL
8bbJ
16eeLL
16ccc
16ccc
16bbJJ
=11
8aaL
8bbJ
16eeLL
16ccc
16ccc
16bbJJ
=12
8aaL
8bbJ
8r
8aa
=13
8bbL
8cccJ
8aaL
16bbL
16aaJJ
=14
8ffL
8aaJ
8eeL
16eeL
16eeJJ
=15
8eeL
16eeL
16eeJJ
8eeL
16eeL
16eeJJ
=16
8eeL
8eeJ
8r
8aa
=17
8bbL
8cccJ
8aaL
16bbL
16aaJJ
=18
8ffL
8aaJ
8eeL
16eeL
16eeJJ
=19
8eeL
16eeL
16eeJJ
8eeL
16eeL
16eeJJ
=20
8eeL
8eeJ
8ff#XL
8aJ
=21
8bL
8ccJ
8bL
8aJ
=22
8ffL
8ee
8dd
8eeJ
=23
16bLL
16ff
16ff
16eeJJ
8ddL
8eeJ
==
*-
!!!ENC: Yukiko Yoden
!!!END: 2023/06/10
